X:1
T:Title
%%score { ( 1 4 ) | ( 2 3 ) }
L:1/8
M:4/4
K:G
V:1 treble nm="Grand Piano"
V:4 treble 
V:2 bass 
V:3 bass 
V:1
 z4 z2[Q:1/4=110] D2 | [B,DG]2 [A,DF]2 [G,DG]2 A2 | B6 [Ec]2 | B2 A2 G2 F2 | [B,G]6 A2 | %5
 B2 [FA]2 B2 c2 | d3 e d2 B2 | A2 AG F2 [^CE]2 | D6 D2 | D2 A2 E2 F2 |[M:3/4] G6 |[M:1/4] A2 | %12
[M:4/4] B2 GA B2 [Fd]2 | d6 d2 | e3 d c2 [DFA]2 |[M:3/4] [DGd]3 [DFc] [DGB]2 |[M:1/4] [DG]2 | %17
[M:4/4] [EGB]2 A[GB] [EGc]2 [CDF]2 |[M:3/4] [G,B,DG]6 |[M:1/4] G-[Gc] | %20
[M:4/4] [DFB]2 [CDA]2 [F,D]2 [Ad]2 | d6[K:bass][K:treble] z2 | [DFB]2 [CDA]2 [F,D]2 [Ad]2 | %23
 d6[K:bass][K:treble] z2 | e3 d c2 [DFA]2 | [DGd]3 [DFc] [DGB]2 [DG]2 | z2 .A2 z4 | %27
[M:3/4] [B,DG]6 |] %28
V:2
 z4 z2 D,2 | G,,2 C,2 B,,2 [D,F,D]2 | [G,D]6 [C,G,]2 | [D,G,D]2 [D,CD]2 [D,B,D]2 [D,A,C]2 | %4
 [G,,G,]6 [D,F,D]2 | [G,D]2 [D,D]2[K:treble] [G,DG]2 [A,DF]2 | [B,DG]3 [CG] [B,DG]2 [G,DG]2 | %7
 [A,DF]2[K:bass] [F,A,D][G,B,E] [A,D]2 [A,,G,]2 | [D,F,]6 [D,F,]2 | %9
 [D,F,C]2 [D,F,C]2 [D,G,C]2 [D,A,C]2 |[M:3/4] [G,B,]6 |[M:1/4] [D,F,D]2 | %12
[M:4/4][K:treble] [G,D]2 [G,D]-[G,CD] [G,DG]2 [D,C]2 | [G,B,G]6 [B,DG]2 | %14
 [CG]3 [B,DG] [A,DF]2[K:bass] D,2 |[M:3/4] B,3 A, G,2 |[M:1/4] B,,2 |[M:4/4] C,2 C,B,, A,,2 D,2 | %18
[M:3/4] G,,6 |[M:1/4] z E |[M:4/4] D,2 F,2 D,2 [F,C]2 | [B,G]6 DE | D,2 F,2 D,2 [F,C]2 | %23
 [B,G]6 z2 | [CG]3 [B,DG] [A,DF]2[K:bass] D,2 | B,3 A, G,2 B,,2 | C,2 C,B,, A,,2 D,2 | %27
[M:3/4] G,,6 |] %28
V:3
 x8 | x8 | x8 | x8 | x8 | x4[K:treble] x4 | x8 | x2[K:bass] x6 | x8 | x8 |[M:3/4] x6 |[M:1/4] x2 | %12
[M:4/4][K:treble] z2 .B,2 z4 | x8 | x6[K:bass] x2 |[M:3/4] x6 |[M:1/4] x2 |[M:4/4] x8 |[M:3/4] x6 | %19
[M:1/4] G,2 |[M:4/4] x8 | G,2 z2 z2 [G,G]2 | x8 | G,2 z2 z2 [B,DG]2 | x6[K:bass] x2 | x8 | x8 | %27
[M:3/4] x6 |] %28
V:4
 x8 | x8 | x8 | x8 | x8 | x8 | x8 | x8 | x8 | x8 |[M:3/4] x6 |[M:1/4] x2 |[M:4/4] x8 | x8 | x8 | %15
[M:3/4] x6 |[M:1/4] x2 |[M:4/4] z2 E2 z4 |[M:3/4] x6 |[M:1/4] [DB] z |[M:4/4] x8 | %21
 z2[K:bass] D,2 G,2[K:treble] Bc | x8 | z2[K:bass] D,2 G,2[K:treble] d2 | x8 | x8 | %26
 [EGB]2 [EG]-[EGB] [EGc]2 [CDF]2 |[M:3/4] x6 |] %28

